icons/svg/file.svg

﻿<?xml version="1.0" encoding="utf-8"?>
<!DOCTYPE svg PUBLIC "-//W3C//DTD SVG 1.1//EN" "http://www.w3.org/Graphics/SVG/1.1/DTD/svg11.dtd">
<svg xmlns="http://www.w3.org/2000/svg" xmlns:xlink="http://www.w3.org/1999/xlink" version="1.1" baseProfile="full" width="24" height="24" viewBox="0 0 24.00 24.00" enable-background="new 0 0 24.00 24.00" xml:space="preserve">
	<path fill="#000000" fill-opacity="1" stroke-width="0.2" stroke-linejoin="round" d="M 12.9994,8.99807L 12.9994,3.49807L 18.4994,8.99807M 5.99939,1.99807C 4.89438,1.99807 4.0094,2.89406 4.0094,3.99807L 3.99939,19.9981C 3.99939,21.1021 4.88538,21.9981 5.98938,21.9981L 17.9994,21.9981C 19.1034,21.9981 19.9994,21.1021 19.9994,19.9981L 19.9994,7.99807L 13.9994,1.99807L 5.99939,1.99807 Z "/>
</svg>

<svg xmlns="http://www.w3.org/2000/svg" version="1.1" baseProfile="full" width="24" height="24" viewBox="0 0 24.00 24.00" xml:space="preserve"><path fill="#000" fill-opacity="1" stroke-width=".2" stroke-linejoin="round" d="M13 8.998v-5.5l5.5 5.5m-12.5-7c-1.106 0-1.99.896-1.99 2l-.01 16c0 1.104.885 2 1.99 2H18c1.103 0 2-.896 2-2v-12l-6-6H6z"/></svg>
